svg/envelope.svg

<svg xmlns="http://www.w3.org/2000/svg" viewBox="0 0 64 42" enable-background="new 0 0 64 42"><style type="text/css">.st0{fill:#343434;}</style><title>envelope</title><desc>Created with Sketch.</desc><path class="st0" d="M60 0h-56c-2.2 0-4 1.8-4 4v34c0 2.2 1.8 4 4 4h56c2.2 0 4-1.8 4-4v-34c0-2.2-1.8-4-4-4zm-3.5 4l-24.5 20-24.5-20h49zm-52.5 31.5v-28.8l18.1 15-18.1 13.8zm2.6 2.5l18.3-13.9 6.3 5.3c.4.4 1.1.4 1.5 0l6.3-5.3 18.4 13.9h-50.8zm53.4-2.5l-18.1-13.8 18.1-15v28.8z" id="Page-1"/></svg>

<svg xmlns="http://www.w3.org/2000/svg" viewBox="0 0 64 42"><path d="M60 0H4C1.8 0 0 1.8 0 4v34c0 2.2 1.8 4 4 4h56c2.2 0 4-1.8 4-4V4c0-2.2-1.8-4-4-4zm-3.5 4L32 24 7.5 4h49zM4 35.5V6.7l18.1 15L4 35.5zM6.6 38l18.3-13.9 6.3 5.3c.4.4 1.1.4 1.5 0l6.3-5.3L57.4 38H6.6zM60 35.5L41.9 21.7 60 6.7v28.8z" fill="#343434"/></svg>
